src/assets/outline/Fatrows.svg

<?xml version="1.0" encoding="UTF-8"?>
<svg width="24" height="24" viewBox="0 0 24 24" xmlns="http://www.w3.org/2000/svg">
 <path d="m19.9 22.75h-15.8c-1.92 0-2.85-0.98-2.85-2.98v-4.04c0-2.01 0.93-2.98 2.85-2.98h15.8c1.92 0 2.85 0.98 2.85 2.98v4.04c0 2-0.93 2.98-2.85 2.98zm-15.8-8.5c-1.01 0-1.35 0.21-1.35 1.48v4.04c0 1.27 0.34 1.48 1.35 1.48h15.8c1.01 0 1.35-0.21 1.35-1.48v-4.04c0-1.27-0.34-1.48-1.35-1.48h-15.8z"/>
 <path d="m12.9 11.25h-8.8c-1.92 0-2.85-0.98-2.85-2.98v-4.04c0-2.01 0.93-2.98 2.85-2.98h8.8c1.92 0 2.85 0.98 2.85 2.98v4.04c0 2-0.93 2.98-2.85 2.98zm-8.8-8.5c-1.01 0-1.35 0.21-1.35 1.48v4.04c0 1.27 0.34 1.48 1.35 1.48h8.8c1.01 0 1.35-0.21 1.35-1.48v-4.04c0-1.27-0.34-1.48-1.35-1.48h-8.8z"/>
</svg>

<svg width="24" height="24" viewBox="0 0 24 24"  xmlns="http://www.w3.org/2000/svg">
<path d="M19.9 22.75H4.1C2.18 22.75 1.25 21.77 1.25 19.77V15.73C1.25 13.72 2.18 12.75 4.1 12.75H19.9C21.82 12.75 22.75 13.73 22.75 15.73V19.77C22.75 21.77 21.82 22.75 19.9 22.75ZM4.1 14.25C3.09 14.25 2.75 14.46 2.75 15.73V19.77C2.75 21.04 3.09 21.25 4.1 21.25H19.9C20.91 21.25 21.25 21.04 21.25 19.77V15.73C21.25 14.46 20.91 14.25 19.9 14.25H4.1Z" />
<path d="M12.9 11.25H4.1C2.18 11.25 1.25 10.27 1.25 8.27V4.23C1.25 2.22 2.18 1.25 4.1 1.25H12.9C14.82 1.25 15.75 2.23 15.75 4.23V8.27C15.75 10.27 14.82 11.25 12.9 11.25ZM4.1 2.75C3.09 2.75 2.75 2.96 2.75 4.23V8.27C2.75 9.54 3.09 9.75 4.1 9.75H12.9C13.91 9.75 14.25 9.54 14.25 8.27V4.23C14.25 2.96 13.91 2.75 12.9 2.75H4.1Z" />
</svg>
